X: 1
T:Mulhaire's #9
C:Martin Mulhaire
R:reel
S:Kevin Finucane
Z:id:hn-reel-764
M:C|
K:D
F2AF DFAF|G2BG DGBd|c2Ac eAce|dcde fdAG|
F2AF DFAF|GB~B2 dB~B2|Acef geAc|1 eddc dBAG:|2 eddc defg||
|:a2fd adfd|adfd edBd|~e3f gfga|be~e2 begb|
a2fd adfd|adfd edBA|~F3A GBdB|1 AFEF D4:|2 AFEF D3E||
